X: 3
I: linebreak $
T: Danse de Cleves
T: for couples
C: 
K: D minor
M: 6/4
L: 1/8
P: A
"^Melody"G2 | d2cBc/B/A/G/ A2G2GA/B/ | c2AFG2 F2F2F2 | B2B2c2 d2d2c2 | B2cBA2 G2G2G2 || 
P: B
d2cBGB A2G2GA/B/ | c2ABG2 F2F2F2 | 
B2B2c2 d2G2_e2 | dc2BA2 G2G2G2 |: 
P: C
g2g2g2 a2d2c/d/e/f/ | gfede2 d2d2G2 :| 
P: D
d2cBc/B/A/G/ A2G2GA/B/ | c2AFG2 F2F2F2 | 
B2B2c2 d2d2c2 | B2cBA2 G2G2G2 || 
P: E
g2g2g2 a2d2ef | g2fde2 d2d2d2 | g2g2g2 a2d2ef | g2fge2 d2d2G2 || 
P: F
d2cB2G A2G2AB | c2BAG2 F2F2F2 | B2B2c2 d2d2c2 | B2GBA2 G2G2G2 || 
P: G
d2cB2c A2G2AB | c2BAG2 F2F2F2 | 
B2B2c2 d2d2c2 | B2GBA2 G6 |] 

